packages/katcn/src/icons/svg/deal.svg

<svg width="24" height="25" viewBox="0 0 24 25" fill="none" xmlns="http://www.w3.org/2000/svg">
<path d="M10.1 9.77607C9.5 8.77607 8.9 8.07607 8.2 7.57607C8.7 6.97607 9 6.17607 9 5.37607C9 3.47607 7.5 1.97607 5.6 1.97607C3.7 1.97607 2.3 3.47607 2.3 5.37607C2.3 6.27607 2.6 6.97607 3.1 7.57607C1.8 8.37607 1 9.87607 1 11.4761V14.2761C1 14.8761 1.4 15.2761 2 15.2761C2.6 15.2761 3 14.8761 3 14.2761V11.4761C3 10.3761 3.6 9.37607 4.6 8.97607C4.9 8.87607 5.3 8.77607 5.7 8.77607C6.9 8.77607 7.5 9.07607 8.5 10.7761L11.2 14.8761C11.4 15.1761 11.7 15.2761 12 15.2761C12.2 15.2761 12.4 15.1761 12.6 15.0761C13.1 14.7761 13.2 14.1761 12.9 13.6761L10.1 9.77607ZM5.6 3.97607C6.4 3.97607 7 4.57607 7 5.37607C7 6.17607 6.4 6.67607 5.6 6.67607C4.8 6.67607 4.3 6.07607 4.3 5.37607C4.3 4.67607 4.9 3.97607 5.6 3.97607Z" fill="black"/>
<path d="M7.49999 11.9761C6.89999 11.9761 6.49999 12.3761 6.49999 12.9761V21.1761C6.49999 21.6761 6.09999 21.9761 5.69999 21.9761C5.29999 21.9761 4.89999 21.5761 4.89999 21.1761V16.6761C4.89999 16.0761 4.49999 15.6761 3.89999 15.6761C3.29999 15.6761 2.89999 16.0761 2.89999 16.6761V21.1761C2.89999 22.7761 4.19999 23.9761 5.69999 23.9761C7.29999 23.9761 8.49999 22.6761 8.49999 21.1761V12.9761C8.49999 12.3761 7.99999 11.9761 7.49999 11.9761Z" fill="black"/>
<path d="M20.9 7.57607C21.4 6.97607 21.8 6.17607 21.8 5.37607C21.8 3.47607 20.3 1.97607 18.4 1.97607C16.5 1.97607 15 3.47607 15 5.37607C15 6.17607 15.3 6.97607 15.8 7.57607C15 8.07607 14.4 8.77607 13.9 9.77607L13.1 10.9761C12.8 11.4761 12.9 12.0761 13.4 12.3761C13.9 12.6761 14.5 12.5761 14.8 12.0761L15.6 10.8761C16.6 9.27607 17.2 8.97607 18.4 8.97607C18.8 8.97607 19.1 9.07607 19.5 9.17607C20.4 9.37607 21 10.3761 21 11.4761V14.2761C21 14.8761 21.4 15.2761 22 15.2761C22.6 15.2761 23 14.8761 23 14.2761V11.4761C23 9.87607 22.2 8.37607 20.9 7.57607ZM18.4 3.97607C19.2 3.97607 19.8 4.57607 19.8 5.37607C19.8 6.17607 19.2 6.77607 18.4 6.77607C17.6 6.77607 17 6.17607 17 5.37607C17 4.57607 17.6 3.97607 18.4 3.97607Z" fill="black"/>
<path d="M20.2 15.5761C19.6 15.5761 19.2 15.9761 19.2 16.5761V21.0761C19.2 21.5761 18.8 21.8761 18.4 21.8761C18 21.8761 17.6 21.4761 17.6 21.0761V12.9761C17.6 12.3761 17.2 11.9761 16.6 11.9761C16 11.9761 15.6 12.3761 15.6 12.9761V21.1761C15.6 22.7761 16.9 23.9761 18.4 23.9761C19.9 23.9761 21.2 22.6761 21.2 21.1761V16.6761C21.2 16.0761 20.7 15.5761 20.2 15.5761Z" fill="black"/>
</svg>

<svg xmlns="http://www.w3.org/2000/svg" fill="none" viewBox="0 0 24 25"><path fill="#000" d="M10.1 9.776c-.6-1-1.2-1.7-1.9-2.2.5-.6.8-1.4.8-2.2 0-1.9-1.5-3.4-3.4-3.4s-3.3 1.5-3.3 3.4c0 .9.3 1.6.8 2.2-1.3.8-2.1 2.3-2.1 3.9v2.8c0 .6.4 1 1 1s1-.4 1-1v-2.8c0-1.1.6-2.1 1.6-2.5.3-.1.7-.2 1.1-.2 1.2 0 1.8.3 2.8 2l2.7 4.1c.2.3.5.4.8.4.2 0 .4-.1.6-.2.5-.3.6-.9.3-1.4zm-4.5-5.8c.8 0 1.4.6 1.4 1.4s-.6 1.3-1.4 1.3-1.3-.6-1.3-1.3.6-1.4 1.3-1.4"/><path fill="#000" d="M7.5 11.976c-.6 0-1 .4-1 1v8.2c0 .5-.4.8-.8.8s-.8-.4-.8-.8v-4.5c0-.6-.4-1-1-1s-1 .4-1 1v4.5c0 1.6 1.3 2.8 2.8 2.8 1.6 0 2.8-1.3 2.8-2.8v-8.2c0-.6-.5-1-1-1m13.4-4.4c.5-.6.9-1.4.9-2.2 0-1.9-1.5-3.4-3.4-3.4s-3.4 1.5-3.4 3.4c0 .8.3 1.6.8 2.2-.8.5-1.4 1.2-1.9 2.2l-.8 1.2c-.3.5-.2 1.1.3 1.4s1.1.2 1.4-.3l.8-1.2c1-1.6 1.6-1.9 2.8-1.9.4 0 .7.1 1.1.2.9.2 1.5 1.2 1.5 2.3v2.8c0 .6.4 1 1 1s1-.4 1-1v-2.8c0-1.6-.8-3.1-2.1-3.9m-2.5-3.6c.8 0 1.4.6 1.4 1.4s-.6 1.4-1.4 1.4-1.4-.6-1.4-1.4.6-1.4 1.4-1.4"/><path fill="#000" d="M20.2 15.576c-.6 0-1 .4-1 1v4.5c0 .5-.4.8-.8.8s-.8-.4-.8-.8v-8.1c0-.6-.4-1-1-1s-1 .4-1 1v8.2c0 1.6 1.3 2.8 2.8 2.8s2.8-1.3 2.8-2.8v-4.5c0-.6-.5-1.1-1-1.1"/></svg>
